;FLAVOR:Marlin
;TIME:785
;Filament used: 0.460739m
;Layer height: 0.14
;MINX:110.997
;MINY:96.45
;MINZ:0.2
;MAXX:124.3
;MAXY:138.55
;MAXZ:9.24
;Generated with Cura_SteamEngine 5.0.0
M140 S50
M105
M190 S50
M104 S200
M105
M109 S200
M82 ;absolute extrusion mode
; Ender 3 Custom Start G-code
G92 E0 ; Reset Extruder
G28 ; Home all axes
G1 Z2.0 F3000 ; Move Z Axis up little to prevent scratching of Heat Bed
G1 X0.1 Y20 Z0.3 F5000.0 ; Move to start position
G1 X0.1 Y200.0 Z0.3 F1500.0 E15 ; Draw the first line
G1 X0.4 Y200.0 Z0.3 F5000.0 ; Move to side a little
G1 X0.4 Y20 Z0.3 F1500.0 E30 ; Draw the second line
G92 E0 ; Reset Extruder
G1 Z2.0 F3000 ; Move Z Axis up little to prevent scratching of Heat Bed
G1 X5 Y20 Z0.3 F5000.0 ; Move over to prevent blob squish
G92 E0
G92 E0
G1 F2700 E-5
;LAYER_COUNT:40
;LAYER:0
M107
;MESH:valence_clip.stl
G0 F6000 X120.5 Y138.55 Z0.2
;TYPE:WALL-OUTER
G1 F2700 E0
G1 F1200 X120.5 Y116.978 E0.71749
G1 X120.629 Y116.79 E0.72507
G1 X120.799 Y116.791 E0.73073
G1 X120.851 Y116.826 E0.73281
G1 X122.61 Y118.488 E0.8133
G1 X124.3 Y118.488 E0.86951
G1 X124.3 Y117.032 E0.91794
G1 X124.3 Y116.353 E0.94052
G1 X120.584 Y113.714 E1.09211
G1 X120.5 Y113.55 E1.09824
G1 X120.584 Y113.386 E1.10437
G1 X124.3 Y110.747 E1.25596
G1 X124.3 Y108.613 E1.32694
G1 X122.717 Y108.612 E1.37959
G1 X120.856 Y110.468 E1.467
G1 X120.706 Y110.526 E1.47235
G1 X120.621 Y110.504 E1.47527
G1 X120.5 Y110.32 E1.4826
G1 X120.5 Y96.45 E1.94392
G1 X110.998 Y96.451 E2.25995
G1 X113.683 Y99.049 E2.38422
G1 X113.982 Y99.049 E2.39416
G1 X114.727 Y97.75 E2.44397
G1 X114.901 Y97.65 E2.45064
G1 X119.2 Y97.65 E2.59363
G1 X119.331 Y97.697 E2.59826
G1 X119.4 Y97.85 E2.60384
G1 X119.4 Y137.15 E3.91096
G1 X119.331 Y137.303 E3.91655
G1 X119.2 Y137.35 E3.92118
G1 X114.901 Y137.35 E4.06416
G1 X114.727 Y137.25 E4.07084
G1 X113.982 Y135.951 E4.12064
G1 X113.683 Y135.951 E4.13059
G1 X110.997 Y138.549 E4.25488
G1 X120.5 Y138.55 E4.57095
G0 F6000 X120.02 Y138.07
G0 X119.2 Y138.04
G0 X119.2 Y138.15
;TYPE:WALL-INNER
G1 F1124.1 X119.495 Y138.123 E4.58147
G1 F997.9 X119.791 Y138.096 E4.59335
G1 F943 X120.046 Y138.096 E4.60415
G1 X120.046 Y137.841 E4.61494
G1 F1021.3 X120.084 Y137.561 E4.62598
G1 F1221.4 X120.123 Y137.28 E4.63525
G1 F1363.6 X120.125 Y137.15 E4.63906
G1 F1371.4 X120.125 Y116.978 E5.22611
G1 F1326 X120.286 Y116.706 E5.23563
G1 F1240.3 X120.448 Y116.433 E5.24584
G1 F1200 X120.719 Y116.372 E5.25508
G1 X120.971 Y116.43 E5.26368
G1 X121.126 Y116.535 E5.26991
G1 X122.769 Y118.088 E5.34511
G1 X123.9 Y118.088 E5.38272
G1 X123.9 Y117.032 E5.41785
G1 X123.9 Y116.559 E5.43358
G1 X122.135 Y115.307 E5.50555
G1 X121.78 Y115.052 E5.52009
G1 X120.352 Y114.04 E5.5783
G1 F1269.8 X120.13 Y113.65 E5.59241
G1 F1348.3 X120.13 Y113.45 E5.59833
G1 F1269.8 X120.352 Y113.06 E5.61243
G1 F1200 X123.9 Y110.541 E5.75716
G1 X123.9 Y109.013 E5.80798
G1 X122.882 Y109.012 E5.84184
G1 X121.138 Y110.752 E5.92377
G1 X121.062 Y110.816 E5.92708
G1 X120.692 Y110.926 E5.93992
G1 X120.463 Y110.872 E5.94774
G1 F1233.9 X120.297 Y110.646 E5.95681
G1 F1307.9 X120.13 Y110.42 E5.96539
G1 F1359.8 X120.125 Y110.32 E5.96833
G1 F1371.4 X120.125 Y97.85 E6.33124
G1 F1233.9 X120.086 Y97.505 E6.34247
G1 F1023.5 X120.046 Y97.159 E6.35605
G1 F943 X120.046 Y96.904 E6.36684
G1 X119.791 Y96.904 E6.37764
G1 F997.9 X119.496 Y96.877 E6.38948
G1 F1124.1 X119.2 Y96.85 E6.40004
G1 F1200 X114.901 Y96.85 E6.54302
G1 F1191.1 X114.762 Y96.853 E6.54768
G1 X113.632 Y96.851 E6.58555
G1 F1200 X111.987 Y96.851 E6.64026
G1 X113.784 Y98.59 E6.72343
G1 X114.38 Y97.551 E6.76327
G1 F1191.1 X114.797 Y97.255 E6.78041
G1 X114.901 Y97.25 E6.7839
G1 F1200 X119.2 Y97.25 E6.92688
G1 F1057.3 X119.626 Y97.352 E6.94342
G1 F1023.5 X119.7 Y97.601 E6.95355
G1 F1233.9 X119.775 Y97.85 E6.96196
G1 F1371.4 X119.775 Y110.32 E7.32487
G1 F1359.8 X119.778 Y110.45 E7.32869
G1 F1322.3 X119.785 Y110.741 E7.33747
G1 F1269.8 X119.793 Y111.032 E7.34662
G1 F1224.5 X119.8 Y111.323 E7.35611
G1 F1200 X119.801 Y112.776 E7.40444
G1 F1233.9 X119.79 Y113.098 E7.41486
G1 F1307.9 X119.778 Y113.42 E7.42469
G1 F1348.3 X119.778 Y113.68 E7.43239
G1 F1307.9 X119.789 Y114.002 E7.44222
G1 F1233.9 X119.801 Y114.324 E7.45264
G1 F1200 X119.8 Y116.018 E7.50898
G1 F1227.6 X119.792 Y116.338 E7.51939
G1 F1280 X119.784 Y116.658 E7.52937
G1 F1340.8 X119.775 Y116.978 E7.5389
G1 F1371.4 X119.775 Y137.15 E8.12596
G1 F1233.9 X119.701 Y137.399 E8.13436
G1 F1023.5 X119.626 Y137.648 E8.1445
G1 F1050.3 X119.304 Y137.745 E8.15728
G1 F1191.1 X119.2 Y137.75 E8.16077
G1 F1200 X114.901 Y137.75 E8.30376
G1 X114.38 Y137.449 E8.32377
G1 X113.784 Y136.41 E8.36361
G1 X111.986 Y138.149 E8.44681
G1 X119.2 Y138.15 E8.68674
G0 F6000 X119.2 Y138.04
G0 X113.056 Y137.716
G1 F1030 X114.095 Y137.716 E8.727
G1 X114.004 Y137.664 E8.73106
G1 X113.685 Y137.108 E8.7559
G1 X113.056 Y137.716 E8.7898
G1 F2700 E3.7898
G0 F6000 X114.526 Y137.794
G0 X119.838 Y137.788
G0 X120.057 Y116.537
G0 X120.833 Y116.201
G0 X122.928 Y117.688
G1 F2700 E8.7898
G1 F1200 X123.5 Y117.688 E8.80882
G1 X123.5 Y117.032 E8.83064
G1 X123.5 Y116.766 E8.83949
G1 X121.903 Y115.633 E8.90462
G1 X121.548 Y115.377 E8.91917
G1 X121.033 Y115.014 E8.94013
G1 X120.201 Y114.423 E8.97407
G1 X120.2 Y116.196 E9.03304
G1 X120.293 Y116.063 E9.03844
G1 X120.723 Y115.972 E9.05306
G1 X121.143 Y116.068 E9.06739
G1 X121.401 Y116.244 E9.07778
G1 X122.928 Y117.688 E9.14768
G0 F6000 X123.582 Y117.77
G0 X123.654 Y116.685
G0 X119.952 Y113.55
G0 X120.201 Y112.677
G1 F1200 X120.927 Y112.161 E9.1773
G1 F1148.3 X121.158 Y111.975 E9.18761
G1 F1054.9 X121.39 Y111.789 E9.19886
G1 F975.6 X121.622 Y111.603 E9.21103
G1 F933.9 X121.795 Y111.471 E9.22033
G1 F905.7 X122.02 Y111.297 E9.23286
G1 F866.4 X122.245 Y111.122 E9.24599
G1 F830.4 X122.471 Y110.947 E9.25973
G1 F969.7 X122.851 Y110.795 E9.27657
G1 F1200 X123.5 Y110.334 E9.30305
G1 X123.5 Y109.413 E9.33368
G1 X123.047 Y109.412 E9.34875
G1 X122.307 Y110.15 E9.38351
G1 F969.7 X122.093 Y110.498 E9.40033
G1 F830.4 X121.883 Y110.691 E9.41403
G1 F866.4 X121.673 Y110.884 E9.42717
G1 F905.7 X121.463 Y111.077 E9.43974
G1 F933.9 X121.326 Y111.187 E9.44725
G1 F993.8 X121.002 Y111.256 E9.46055
G1 F1124.1 X120.677 Y111.326 E9.47236
G1 F1200 X120.319 Y111.246 E9.48456
G1 X120.2 Y111.105 E9.4907
G1 X120.201 Y112.677 E9.54298
G0 F6000 X119.829 Y109.048
G0 X119.838 Y97.212
G0 X114.526 Y97.206
G0 X113.685 Y97.893
G1 F1032.3 X114.005 Y97.336 E9.56782
G1 X114.082 Y97.283 E9.57143
G1 X113.056 Y97.284 E9.6111
G1 X113.685 Y97.893 E9.64495
G0 F6000 X114.526 Y97.206
G0 X119.838 Y97.212
G0 X120.057 Y110.769
G0 X120.672 Y111.427
G0 X120.697 Y111.721
;TYPE:SKIN
G1 F802.7 X120.624 Y111.721 E9.64858
G1 X120.587 Y111.785 E9.65226
G1 X120.623 Y111.849 E9.65591
G1 X120.697 Y111.849 E9.65959
G1 X120.734 Y111.785 E9.66327
G0 F6000 X120.941 Y112.013
G0 X122.835 Y110.683
G0 X122.647 Y110.416
G1 F864.9 X122.839 Y110.255 E9.67483
G1 F804 X123.031 Y110.093 E9.6873
G0 F6000 X123.242 Y110.394
G0 X119.952 Y113.55
G0 X120.149 Y116.151
G0 X121.196 Y115.984
G0 X121.347 Y115.726
G1 F1006.3 X121.674 Y115.955 E9.70313
G1 F973.6 X121.892 Y116.134 E9.7147
G1 F900.6 X122.111 Y116.314 E9.72726
G1 F837.7 X122.33 Y116.493 E9.74074
G1 F784.3 X122.548 Y116.673 E9.75512
G1 F736.2 X122.767 Y116.853 E9.77049
G1 F693.6 X122.986 Y117.032 E9.78677
G0 F6000 X123.4 Y117.032
G0 X123.328 Y117.516
G0 X123.027 Y117.524
G0 X120.713 Y115.871
G0 X120.768 Y115.634
G1 F1165 X121.263 Y115.703 E9.80389
G1 F1027.8 X121.347 Y115.726 E9.80727
G1 F1010.5 X121.323 Y115.698 E9.80873
G1 F1039 X121.281 Y115.663 E9.81083
G1 F1108.5 X121.09 Y115.502 E9.81982
G1 F1230.8 X120.899 Y115.34 E9.82794
G1 F1300.8 X120.546 Y115.088 E9.84125
G1 X120.545 Y115.663 E9.85889
G1 X120.768 Y115.634 E9.86579
G0 F6000 X120.545 Y115.926
G1 F2700 E4.86579
;MESH:NONMESH
G0 F300 X120.545 Y115.926 Z0.4
G0 F6000 X120.057 Y116.537
G0 X120.02 Y138.07
G1 F2700 E9.86579
G0 F6000 X120.5 Y138.55
;TIME_ELAPSED:24.743161
;LAYER:1
M106 S42.5
;TYPE:WALL-OUTER
;MESH:valence_clip.stl
G1 F1200 X120.5 Y116.978 E10.58328
G1 X120.629 Y116.79 E10.59086
G1 X120.799 Y116.791 E10.59652
G1 X120.851 Y116.826 E10.5986
G1 X122.788 Y118.655 E10.68721
G1 X124.3 Y118.655 E10.7375
G1 X124.3 Y117.032 E10.79148
G1 X124.3 Y116.353 E10.81406
G1 X120.584 Y113.714 E10.96566
G1 X120.5 Y113.55 E10.97178
G1 X120.584 Y113.386 E10.97791
G1 X124.3 Y110.747 E11.1295
G1 X124.3 Y108.446 E11.20604
G1 X122.885 Y108.445 E11.2531
G1 X120.856 Y110.468 E11.3484
G1 X120.706 Y110.526 E11.35374
G1 X120.621 Y110.504 E11.35666
G1 X120.5 Y110.32 E11.36399
G1 X120.5 Y96.45 E11.82531
G1 X110.998 Y96.451 E12.14135
G1 X113.683 Y99.049 E12.26561
G1 X113.982 Y99.049 E12.27555
G1 X114.727 Y97.75 E12.32536
G1 X114.901 Y97.65 E12.33204
G1 X119.2 Y97.65 E12.47502
G1 X119.331 Y97.697 E12.47965
G1 X119.4 Y97.85 E12.48523
G1 X119.4 Y137.15 E13.79236
G1 X119.331 Y137.303 E13.79794
G1 X119.2 Y137.35 E13.80257
G1 X114.901 Y137.35 E13.94555
G1 X114.727 Y137.25 E13.95223
G1 X113.982 Y135.951 E14.00203
G1 X113.683 Y135.951 E14.01198
G1 X110.997 Y138.549 E14.13627
G1 X120.5 Y138.55 E14.45234
G0 F7500 X120.02 Y138.07
G0 X119.2 Y138.04
G0 X119.2 Y138.15
;TYPE:WALL-INNER
G1 F1124.1 X119.495 Y138.123 E14.46286
G1 F997.9 X119.791 Y138.096 E14.47474
G1 F943 X120.046 Y138.096 E14.48554
G1 X120.046 Y137.841 E14.49633
G1 F1021.3 X120.084 Y137.561 E14.50737
G1 F1221.4 X120.123 Y137.28 E14.51664
G1 F1363.6 X120.125 Y137.15 E14.52045
G1 F1371.4 X120.125 Y116.978 E15.10751
G1 F1326 X120.286 Y116.706 E15.11702
G1 F1240.3 X120.448 Y116.433 E15.12724
G1 F1200 X120.719 Y116.372 E15.13647
G1 X120.971 Y116.43 E15.14507
G1 X121.126 Y116.535 E15.1513
G1 X122.947 Y118.255 E15.23461
G1 X123.9 Y118.255 E15.26631
G1 X123.9 Y117.032 E15.30699
G1 X123.9 Y116.559 E15.32272
G1 X120.352 Y114.04 E15.46744
G1 F1269.8 X120.13 Y113.65 E15.48155
G1 F1348.3 X120.13 Y113.45 E15.48747
G1 F1269.8 X120.352 Y113.06 E15.50157
G1 F1200 X123.9 Y110.541 E15.6463
G1 X123.9 Y108.846 E15.70267
G1 X123.05 Y108.845 E15.73095
G1 X121.138 Y110.752 E15.82076
G1 X121.062 Y110.816 E15.82407
G1 X120.692 Y110.926 E15.83691
G1 X120.463 Y110.872 E15.84473
G1 F1233.9 X120.297 Y110.646 E15.8538
G1 F1307.9 X120.13 Y110.42 E15.86238
G1 F1359.8 X120.125 Y110.32 E15.86532
G1 F1371.4 X120.125 Y97.85 E16.22823
G1 F1233.9 X120.086 Y97.505 E16.23946
G1 F1023.5 X120.046 Y97.159 E16.25304
G1 F943 X120.046 Y96.904 E16.26383
G1 X119.791 Y96.904 E16.27462
G1 F997.9 X119.496 Y96.877 E16.28647
G1 F1124.1 X119.2 Y96.85 E16.29703
G1 F1200 X114.901 Y96.85 E16.44001
G1 F1191.1 X114.762 Y96.853 E16.44467
G1 X113.632 Y96.851 E16.48254
G1 F1200 X111.987 Y96.851 E16.53725
G1 X113.784 Y98.59 E16.62042
G1 X114.38 Y97.551 E16.66026
G1 F1191.1 X114.797 Y97.255 E16.6774
G1 X114.901 Y97.25 E16.68088
G1 F1200 X119.2 Y97.25 E16.82387
G1 F1057.3 X119.626 Y97.352 E16.84041
G1 F1023.5 X119.7 Y97.601 E16.85054
G1 F1233.9 X119.775 Y97.85 E16.85895
G1 F1371.4 X119.775 Y110.32 E17.22186
G1 F1359.8 X119.778 Y110.45 E17.22567
G1 F1322.3 X119.785 Y110.741 E17.23446
G1 F1269.8 X119.793 Y111.032 E17.24361
G1 F1224.5 X119.8 Y111.323 E17.2531
G1 F1200 X119.801 Y112.776 E17.30142
G1 F1233.9 X119.79 Y113.098 E17.31185
G1 F1307.9 X119.778 Y113.42 E17.32168
G1 F1348.3 X119.778 Y113.68 E17.32938
G1 F1307.9 X119.789 Y114.002 E17.33921
G1 F1233.9 X119.801 Y114.324 E17.34963
G1 F1200 X119.8 Y116.018 E17.40597
G1 F1227.6 X119.792 Y116.338 E17.41638
G1 F1280 X119.784 Y116.658 E17.42636
G1 F1340.8 X119.775 Y116.978 E17.43589
G1 F1371.4 X119.775 Y137.15 E18.02295
G1 F1233.9 X119.701 Y137.399 E18.03135
G1 F1023.5 X119.626 Y137.648 E18.04149
G1 F1050.3 X119.304 Y137.745 E18.05427
G1 F1191.1 X119.2 Y137.75 E18.05776
G1 F1200 X114.901 Y137.75 E18.20075
G1 X114.38 Y137.449 E18.22076
G1 X113.784 Y136.41 E18.2606
G1 X111.986 Y138.149 E18.34379
G1 X119.2 Y138.15 E18.58373
G0 F7500 X119.2 Y138.04
G0 X113.056 Y137.716
G1 F1030 X114.095 Y137.716 E18.62399
G1 X114.004 Y137.664 E18.62805
G1 X113.685 Y137.108 E18.65289
G1 X113.056 Y137.716 E18.68679
G1 F2700 E13.68679
G0 F7500 X114.526 Y137.794
G0 X119.838 Y137.788
G0 X120.057 Y116.537
G0 X120.833 Y116.201
G0 X123.106 Y117.855
G1 F2700 E18.68679
G1 F1200 X123.5 Y117.855 E18.69989
G1 X123.5 Y117.032 E18.72727
G1 X123.5 Y116.766 E18.73611
G1 X121.548 Y115.377 E18.8158
G1 X121.033 Y115.014 E18.83675
G1 X120.201 Y114.423 E18.8707
G1 X120.2 Y116.196 E18.92967
G1 X120.293 Y116.063 E18.93506
G1 X120.723 Y115.972 E18.94968
G1 X121.143 Y116.068 E18.96401
G1 X121.4 Y116.244 E18.97437
G1 X123.106 Y117.855 E19.05241
G0 F7500 X123.582 Y117.937
G0 X123.654 Y116.685
G0 X119.952 Y113.55
G0 X120.201 Y112.677
G1 F1200 X120.927 Y112.161 E19.08204
G1 F1148.3 X121.158 Y111.975 E19.09235
G1 F1054.9 X121.39 Y111.789 E19.1036
G1 F975.6 X121.622 Y111.603 E19.11576
G1 F933.9 X121.795 Y111.471 E19.12506
G1 F905.7 X122.02 Y111.297 E19.1376
G1 F866.4 X122.245 Y111.122 E19.15073
G1 F830.4 X122.471 Y110.947 E19.16446
G1 F969.7 X122.851 Y110.795 E19.18131
G1 F1200 X123.5 Y110.334 E19.20779
G1 X123.5 Y109.246 E19.24397
G1 X123.215 Y109.245 E19.25345
G1 X122.307 Y110.15 E19.29609
G1 F969.7 X122.093 Y110.498 E19.31291
G1 F830.4 X121.883 Y110.691 E19.32662
G1 F866.4 X121.673 Y110.884 E19.33975
G1 F905.7 X121.463 Y111.077 E19.35232
G1 F933.9 X121.326 Y111.187 E19.35983
G1 F993.8 X121.002 Y111.256 E19.37314
G1 F1124.1 X120.677 Y111.326 E19.38494
G1 F1200 X120.319 Y111.246 E19.39714
G1 X120.2 Y111.105 E19.40328
G1 X120.201 Y112.677 E19.45556
G0 F7500 X119.829 Y109.048
G0 X119.838 Y97.212
G0 X114.526 Y97.206
G0 X113.685 Y97.893
G1 F1032.3 X114.005 Y97.336 E19.4804
G1 X114.082 Y97.283 E19.48402
G1 X113.056 Y97.284 E19.52369
G1 X113.685 Y97.893 E19.55754
G0 F7500 X114.526 Y97.206
G0 X119.838 Y97.212
G0 X120.057 Y110.769
G0 X120.672 Y111.427
G0 X120.697 Y111.721
;TYPE:SKIN
G1 F802.7 X120.624 Y111.721 E19.56117
G1 X120.587 Y111.785 E19.56484
G1 X120.623 Y111.849 E19.56849
G1 X120.697 Y111.849 E19.57217
G1 X120.734 Y111.785 E19.57585
G0 F7500 X120.941 Y112.013
G0 X122.835 Y110.683
G0 X122.647 Y110.416
G1 F864.9 X122.839 Y110.255 E19.58741
G1 F804 X123.031 Y110.093 E19.59988
G0 F7500 X123.242 Y110.394
G0 X119.952 Y113.55
G0 X120.149 Y116.151
G0 X121.196 Y115.984
G0 X121.347 Y115.726
G1 F1008.4 X121.644 Y115.932 E19.61419
G1 F1014.8 X121.674 Y115.955 E19.61568
G1 F973.6 X121.892 Y116.134 E19.62724
G1 F900.6 X122.111 Y116.313 E19.63977
G1 F839.2 X122.33 Y116.493 E19.65326
G1 F785.6 X122.549 Y116.672 E19.66763
G1 F737.3 X122.768 Y116.852 E19.68297
G1 F695.7 X122.987 Y117.031 E19.6992
G0 F7500 X123.226 Y116.694
G0 X123.328 Y117.683
G0 X120.713 Y115.871
G0 X120.768 Y115.634
G1 F1165 X121.263 Y115.703 E19.71632
G1 F1027.8 X121.347 Y115.726 E19.7197
G1 X121.281 Y115.663 E19.72325
G1 F1108.5 X121.09 Y115.502 E19.73224
G1 F1230.8 X120.899 Y115.34 E19.74036
G1 F1300.8 X120.546 Y115.088 E19.75367
G1 X120.545 Y115.663 E19.77131
G1 X120.768 Y115.634 E19.77821
G0 F7500 X120.545 Y115.926
G1 F2700 E14.77821
;MESH:NONMESH
G0 F300 X120.545 Y115.926 Z0.64
G0 F7500 X120.057 Y116.537
G0 X120.02 Y138.07
G1 F2700 E19.77821
G0 F7500 X120.5 Y138.55
;TIME_ELAPSED:45.177430
;LAYER:2
M106 S85
;TYPE:WALL-OUTER
;MESH:valence_clip.stl
G1 F1200 X120.5 Y116.978 E20.6392
G1 X120.629 Y116.79 E20.6483
G1 X120.799 Y116.791 E20.65508
G1 X120.851 Y116.826 E20.65758
G1 X122.985 Y118.842 E20.77475
G1 X124.3 Y118.842 E20.82724
G1 X124.3 Y117.032 E20.89948
G1 X124.3 Y116.353 E20.92658
G1 X120.584 Y113.714 E21.10849
G1 X120.5 Y113.55 E21.11584
G1 X120.584 Y113.386 E21.1232
G1 X124.3 Y110.747 E21.30511
G1 X124.3 Y108.259 E21.40441
G1 X123.072 Y108.259 E21.45342
G1 X120.856 Y110.468 E21.5783
G1 X120.706 Y110.526 E21.58472
G1 X120.621 Y110.504 E21.58823
G1 X120.5 Y110.32 E21.59702
G1 X120.5 Y96.45 E22.1506
G1 X110.998 Y96.451 E22.52984
G1 X113.683 Y99.049 E22.67896
G1 X113.982 Y99.049 E22.69089
G1 X114.727 Y97.75 E22.75066
G1 X114.901 Y97.65 E22.75867
G1 X119.2 Y97.65 E22.93025
G1 X119.331 Y97.697 E22.93581
G1 X119.4 Y97.85 E22.94251
G1 X119.4 Y137.15 E24.51106
G1 X119.331 Y137.303 E24.51775
G1 X119.2 Y137.35 E24.52331
G1 X114.901 Y137.35 E24.69489
G1 X114.727 Y137.25 E24.7029
G1 X113.982 Y135.951 E24.76267
G1 X113.683 Y135.951 E24.7746
